sourses/img/visa.svg

<svg width="48" height="48" viewBox="0 0 48 48" fill="none" xmlns="http://www.w3.org/2000/svg">
<g clip-path="url(#clip0)">
<path d="M41.6842 9.47363H6.3158C3.1765 9.47363 0.631592 12.0185 0.631592 15.1578V32.8421C0.631592 35.9814 3.1765 38.5263 6.3158 38.5263H41.6842C44.8235 38.5263 47.3684 35.9814 47.3684 32.8421V15.1578C47.3684 12.0185 44.8235 9.47363 41.6842 9.47363Z" fill="white"/>
<path d="M41.6842 10.1054C43.0243 10.1054 44.3094 10.6378 45.257 11.5853C46.2045 12.5329 46.7368 13.818 46.7368 15.1581V32.8423C46.7368 34.1823 46.2045 35.4675 45.257 36.415C44.3094 37.3626 43.0243 37.8949 41.6842 37.8949H6.31579C4.97575 37.8949 3.69059 37.3626 2.74304 36.415C1.79549 35.4675 1.26316 34.1823 1.26316 32.8423V15.1581C1.26316 13.818 1.79549 12.5329 2.74304 11.5853C3.69059 10.6378 4.97575 10.1054 6.31579 10.1054H41.6842ZM41.6842 8.84229H6.31579C4.64074 8.84229 3.03429 9.5077 1.84985 10.6921C0.665412 11.8766 0 13.483 0 15.1581L0 32.8423C0 34.5173 0.665412 36.1238 1.84985 37.3082C3.03429 38.4927 4.64074 39.1581 6.31579 39.1581H41.6842C43.3593 39.1581 44.9657 38.4927 46.1501 37.3082C47.3346 36.1238 48 34.5173 48 32.8423V15.1581C48 13.483 47.3346 11.8766 46.1501 10.6921C44.9657 9.5077 43.3593 8.84229 41.6842 8.84229Z" fill="#F7F7F7"/>
<path d="M19.9075 19.6545L16.2822 28.3577H13.8949L12.1391 21.4735C12.1249 21.3101 12.0685 21.1532 11.9755 21.0181C11.8826 20.8831 11.7561 20.7745 11.6085 20.7029C10.9083 20.3676 10.1704 20.1174 9.41064 19.9577V19.705H13.2001C13.4509 19.708 13.6926 19.7997 13.8822 19.9639C14.0718 20.128 14.1971 20.3541 14.2359 20.6019L15.1706 25.6545L17.4949 19.7303L19.9075 19.6545ZM29.1664 25.5156C29.1664 23.2292 26.0085 23.1029 26.0338 22.0671C26.0338 21.764 26.337 21.4229 26.9812 21.3471C27.7388 21.2704 28.5029 21.4014 29.1917 21.7261L29.5833 19.8819C28.9113 19.636 28.202 19.5078 27.4864 19.5029C25.2759 19.5029 23.697 20.6777 23.697 22.3829C23.697 23.6461 24.8085 24.3282 25.6549 24.745C26.5012 25.1619 26.817 25.4524 26.817 25.8314C26.817 26.4124 26.1222 26.665 25.478 26.6777C24.6776 26.6987 23.8854 26.5116 23.1791 26.1345L22.737 28.0419C23.5428 28.3517 24.4 28.506 25.2633 28.4966C27.6128 28.4966 29.1412 27.3345 29.1538 25.5156H29.1664ZM34.9896 28.3577H37.0485L35.2549 19.6545H33.3601C33.1542 19.6543 32.9529 19.7155 32.7819 19.8302C32.6109 19.945 32.478 20.1081 32.4001 20.2987L29.0528 28.3577H31.4022L31.857 27.0945H34.7243L34.9896 28.3577ZM32.4633 25.2756L33.6506 22.0166L34.358 25.2629L32.4633 25.2756ZM23.0654 19.6545L21.2212 28.3577H19.0233L20.8675 19.6545H23.0654Z" fill="#122A96"/>
</g>
<defs>
<clipPath id="clip0">
<rect width="48" height="48" fill="white"/>
</clipPath>
</defs>
</svg>

<svg width="48" height="48" fill="none" xmlns="http://www.w3.org/2000/svg"><g clip-path="url(#clip0)"><path d="M41.684 9.474H6.316a5.684 5.684 0 00-5.684 5.684v17.684a5.684 5.684 0 005.684 5.684h35.368a5.684 5.684 0 005.684-5.684V15.158a5.684 5.684 0 00-5.684-5.684z" fill="#fff"/><path d="M41.684 10.105a5.053 5.053 0 015.053 5.053v17.684a5.053 5.053 0 01-5.053 5.053H6.316a5.052 5.052 0 01-5.053-5.053V15.158a5.053 5.053 0 015.053-5.053h35.368zm0-1.263H6.316A6.316 6.316 0 000 15.158v17.684a6.316 6.316 0 006.316 6.316h35.368A6.315 6.315 0 0048 32.842V15.158a6.316 6.316 0 00-6.316-6.316z" fill="#F7F7F7"/><path d="M19.907 19.654l-3.625 8.704h-2.387l-1.756-6.884a.948.948 0 00-.53-.771 9.717 9.717 0 00-2.198-.745v-.253h3.79a1.061 1.061 0 011.035.897l.935 5.052 2.324-5.924 2.412-.076zm9.26 5.862c0-2.287-3.159-2.413-3.133-3.449 0-.303.303-.644.947-.72a4.193 4.193 0 012.21.38l.392-1.845a6.226 6.226 0 00-2.097-.38c-2.21 0-3.789 1.176-3.789 2.88 0 1.264 1.111 1.946 1.958 2.363.846.417 1.162.707 1.162 1.086 0 .581-.695.834-1.339.847a4.624 4.624 0 01-2.299-.544l-.442 1.908c.806.31 1.663.464 2.526.455 2.35 0 3.878-1.163 3.89-2.981h.013zm5.823 2.842h2.058l-1.793-8.704H33.36a1.036 1.036 0 00-.96.645l-3.347 8.059h2.35l.454-1.264h2.867l.266 1.264zm-2.527-3.082l1.188-3.26.707 3.247-1.895.013zm-9.398-5.622l-1.844 8.704h-2.198l1.845-8.704h2.197z" fill="#122A96"/></g><defs><clipPath id="clip0"><path fill="#fff" d="M0 0h48v48H0z"/></clipPath></defs></svg>
